X: 132
M: C
L: 1/8
K: G
|:\
ddde d2zB/c/ | d3g fe dB/c/ |\
d3 e AG/A/ DB/c/ | d3g f2e2 |
d4 G2zG/A/ | B2d2 B2z2 |\
fed2 BA/B/ cB/c/ | de AG/A/ D4 |

